X: 75
T: No_169_If_I_Were_a_Son-in-law.krn
%%abc-version 2.0
%%abcx-abcm2ps-target-version 5.9.1 (29 Sep 2008)
%%abc-creator hum2abc beta
%%abcx-conversion-date 2020/08/10 18:54:57
%%gracespace 0 6 6
%%humdrum-veritas 16134940
%%humdrum-veritas-data 2187664274
%%linebreak <none>
%%barnumbers 0
L: 1/8
M: 3/4
%%staves {1 2}
V: 1 clef=bass
V: 2 clef=bass
K: Eb
[V:1] E,/E,3/ [I:setbarnb 1]| 
[V:2] z2 | 
[V:1] B,2B,B,B,2 ||  
[V:2] (3!accent!G,, z G,, (3!accent!G,, z G,, (3!accent!G,, z G,, ||  
[V:1] [M:2/4]B,4- | 
[V:2] [M:2/4]z4 | 
[V:1] B,2G,2 | 
[V:2] z4 | 
[V:1] A,<A,-A,2 | 
[V:2] z4 | 
[V:1] B,2G,2 | 
[V:2] z4 | 
[V:1] G,4 | 
[V:2] z4 | 
[V:1] G,<E,E,2 | 
[V:2] z4 | 
[V:1] G,G,-G,2 | 
[V:2] z4 | 
[V:1] A,<G,G,2 | 
[V:2] z4 | 
[V:1] G,4- | 
[V:2] z4 | 
[V:1] G,2E,E, | 
[V:2] z4 | 
[V:1] E,3E, | 
[V:2] z4 | 
[V:1] G,2E,2 | 
[V:2] z4 | 
[V:1] E,4 | 
[V:2] z4 | 
[V:1] E,3B,, | 
[V:2] z4 | 
[V:1] B,,4 | 
[V:2] z4 | 
[V:1] E,2E,2 | 
[V:2] z4 | 
[V:1] E,4- | 
[V:2] z4 | 
[V:1] E,4 |]  
[V:2] z4 |]  


